art/zoom_in.svg

<?xml version="1.0" encoding="UTF-8" standalone="no"?>
<svg xmlns:dc="http://purl.org/dc/elements/1.1/" xmlns:cc="http://creativecommons.org/ns#" xmlns:rdf="http://www.w3.org/1999/02/22-rdf-syntax-ns#" xmlns:svg="http://www.w3.org/2000/svg" xmlns="http://www.w3.org/2000/svg" version="1.2" viewBox="0 0 80 80" width="80" height="80" >
	<!-- copyright M. Dietrich <mdt@pyneo.org> -->
	<path style="fill:#ee9900;fill-opacity:0.5;stroke:none" d="M 60,10.449219 A 50.608057,49.551278 0 0 0 9.3925781,60 50.608057,49.551278 0 0 0 60,109.55078 50.608057,49.551278 0 0 0 110.60742,60 50.608057,49.551278 0 0 0 60,10.449219 Z M 60,26 c 3.387,-0.001 6.133814,2.744813 6.132812,6.132812 l -0.002,21.712891 21.798829,0 c 3.398999,0 6.152343,2.756297 6.152343,6.154297 0,3.399 -2.753343,6.154297 -6.152343,6.154297 l -21.796876,0 -0.002,21.712891 C 66.131859,91.255186 63.386,94 60,94 56.612,94 53.868187,91.254188 53.867188,87.867188 l 0,-21.712891 -21.820313,0 c -3.399,0 -6.15625,-2.755297 -6.15625,-6.154297 0.001,-3.399 2.75725,-6.154297 6.15625,-6.154297 l 21.820313,0 0,-21.712891 C 53.865186,28.747813 56.612,26.001 60,26 Z" transform="matrix(0.69159818,0,0,0.70634609,-1.4958899,-2.380765)" />
</svg>

<?xml version="1.0" encoding="UTF-8" standalone="no"?>
<svg xmlns:dc="http://purl.org/dc/elements/1.1/" xmlns:cc="http://creativecommons.org/ns#" xmlns:rdf="http://www.w3.org/1999/02/22-rdf-syntax-ns#" xmlns:svg="http://www.w3.org/2000/svg" xmlns="http://www.w3.org/2000/svg" xmlns:sodipodi="http://sodipodi.sourceforge.net/DTD/sodipodi-0.dtd" xmlns:inkscape="http://www.inkscape.org/namespaces/inkscape" version="1.2" viewBox="0 0 120 120" width="120" height="120" id="zoom_in" inkscape:version="0.91 r13725" sodipodi:docname="zoom_in.svg">
	<path style="fill:#ee9900;stroke:none;fill-opacity:0.5" d="M 60 10.449219 A 50.608057 49.551278 0 0 0 9.3925781 60 A 50.608057 49.551278 0 0 0 60 109.55078 A 50.608057 49.551278 0 0 0 110.60742 60 A 50.608057 49.551278 0 0 0 60 10.449219 z M 60 26 C 63.387 25.999 66.133814 28.744813 66.132812 32.132812 L 66.130859 53.845703 L 87.929688 53.845703 C 91.328687 53.845703 94.082031 56.602 94.082031 60 C 94.082031 63.399 91.328688 66.154297 87.929688 66.154297 L 66.132812 66.154297 L 66.130859 87.867188 C 66.131859 91.255186 63.386 94 60 94 C 56.612 94 53.868187 91.254188 53.867188 87.867188 L 53.867188 66.154297 L 32.046875 66.154297 C 28.647875 66.154297 25.890625 63.399 25.890625 60 C 25.891625 56.601 28.647875 53.845703 32.046875 53.845703 L 53.867188 53.845703 L 53.867188 32.132812 C 53.865186 28.747813 56.612 26.001 60 26 z " />
</svg>
